static/assets/img/icons/theme/media/cd.svg

<svg height="24" viewBox="0 0 24 24" width="24" xmlns="http://www.w3.org/2000/svg"><g fill="none" fill-rule="evenodd"><path d="m0 0h24v24h-24z" opacity="0"/><g fill="#000"><path d="m12 21c-4.97056275 0-9-4.0294373-9-9 0-4.97056275 4.02943725-9 9-9 4.9705627 0 9 4.02943725 9 9 0 4.9705627-4.0294373 9-9 9zm0-6c1.6568542 0 3-1.3431458 3-3s-1.3431458-3-3-3-3 1.3431458-3 3 1.3431458 3 3 3z"/><circle cx="12" cy="12" opacity=".3" r="1"/></g></g></svg>

<svg width="24px" height="24px" viewBox="0 0 24 24" version="1.1" xmlns="http://www.w3.org/2000/svg" xmlns:xlink="http://www.w3.org/1999/xlink">
    <title>Icon For CD</title>
    <g stroke="none" stroke-width="1" fill="none" fill-rule="evenodd">
        <rect opacity="0" x="0" y="0" width="24" height="24"></rect>
        <path d="M12,21 C7.02943725,21 3,16.9705627 3,12 C3,7.02943725 7.02943725,3 12,3 C16.9705627,3 21,7.02943725 21,12 C21,16.9705627 16.9705627,21 12,21 Z M12,15 C13.6568542,15 15,13.6568542 15,12 C15,10.3431458 13.6568542,9 12,9 C10.3431458,9 9,10.3431458 9,12 C9,13.6568542 10.3431458,15 12,15 Z" fill="#000000"></path>
        <circle fill="#000000" opacity="0.3" cx="12" cy="12" r="1"></circle>
    </g>
</svg>
